dist/images/slides/compitences-4.svg

<svg width="100" height="100" viewBox="0 0 100 100" fill="none" xmlns="http://www.w3.org/2000/svg">
<path d="M49.1434 100C22.002 100 0 77.9964 0 50.855C0 37.5107 5.31883 25.4077 13.9504 16.5527C14.063 16.437 14.1758 16.3228 14.2897 16.2079L14.2922 16.2111C5.66095 25.066 0.341727 37.1683 0.341727 50.5126C0.341727 77.6546 22.3438 99.6582 49.4851 99.6582C62.8292 99.6582 74.9321 94.3387 83.787 85.7066L83.7894 85.7088C83.6752 85.823 83.5603 85.9355 83.4454 86.0481C74.5897 94.6814 62.4876 100 49.1434 100Z" fill="#969A9D"/>
<path d="M49.4871 99.6582C22.3459 99.6582 0.34375 77.6546 0.34375 50.5126C0.34375 37.1683 5.66298 25.066 14.2942 16.2111C14.4071 16.0953 14.52 15.9804 14.6334 15.8662L14.6363 15.8686C6.00502 24.7244 0.685798 36.8266 0.685798 50.171C0.685798 77.3129 22.6879 99.3168 49.8295 99.3168C63.1737 99.3168 75.2758 93.9972 84.1307 85.364L84.1339 85.3674C84.0189 85.4806 83.9048 85.5941 83.789 85.7067C74.9342 94.3387 62.8313 99.6582 49.4871 99.6582Z" fill="#96999C"/>
<path d="M49.8312 99.3167C22.6896 99.3167 0.6875 77.3128 0.6875 50.1708C0.6875 36.8265 6.00672 24.7243 14.638 15.8685C14.7509 15.7535 14.8637 15.6386 14.9773 15.5245L14.98 15.5268C6.34877 24.3818 1.02922 36.4849 1.02922 49.8292C1.02922 76.9704 23.0316 98.974 50.1729 98.974C63.517 98.974 75.6191 93.6553 84.4748 85.0224L84.4772 85.0246C84.3631 85.139 84.2481 85.2513 84.1324 85.3638C75.2775 93.997 63.1754 99.3167 49.8312 99.3167Z" fill="#96989A"/>
<path d="M50.171 98.974C23.0298 98.974 1.02734 76.9704 1.02734 49.8292C1.02734 36.4849 6.34689 24.3818 14.9782 15.5269C15.0907 15.4111 15.2036 15.297 15.3174 15.182L15.3199 15.1852C6.68862 24.0402 1.36939 36.1424 1.36939 49.4868C1.36939 76.6286 23.3715 98.6326 50.5126 98.6326C63.8568 98.6326 75.9597 93.313 84.8146 84.6807L84.817 84.6832C84.7028 84.7964 84.5879 84.9099 84.4729 85.0225C75.6173 93.6554 63.5152 98.974 50.171 98.974Z" fill="#95979A"/>
<path d="M50.5104 98.6329C23.3693 98.6329 1.36719 76.629 1.36719 49.4871C1.36719 36.1428 6.68641 24.0405 15.3177 15.1856C15.4302 15.0698 15.5434 14.9549 15.6573 14.8407L15.6597 14.8431C13.5962 16.9609 11.7207 19.2646 10.063 21.7256C10.0614 21.728 10.0596 21.7312 10.0577 21.7336C10.0465 21.7504 10.0353 21.7671 10.0241 21.7839C10.0207 21.7895 10.0178 21.7927 10.0144 21.7983C10.0044 21.8134 9.99471 21.8278 9.98449 21.843C9.98106 21.8477 9.97539 21.8565 9.97196 21.8613C9.96262 21.8757 9.95392 21.8885 9.94458 21.9028C9.93923 21.9108 9.93485 21.9172 9.9299 21.9252C9.92207 21.9363 9.91337 21.9491 9.90587 21.9611C9.899 21.9715 9.89309 21.9803 9.88623 21.9898C9.88 21.9994 9.87314 22.0098 9.86692 22.0194C9.85909 22.0313 9.85223 22.0417 9.84448 22.0529C9.8385 22.0625 9.83323 22.0705 9.82732 22.0792C9.81886 22.092 9.81016 22.1048 9.8017 22.1176C9.79771 22.1239 9.79299 22.1311 9.78892 22.1375C9.77863 22.1527 9.76961 22.1662 9.75963 22.1822C9.7562 22.187 9.75373 22.191 9.75029 22.1958C9.73936 22.2125 9.72754 22.2309 9.7166 22.2477C9.71477 22.2501 9.71413 22.2509 9.71253 22.2541C9.69976 22.2732 9.68763 22.2916 9.67486 22.3115C9.67454 22.3123 9.67422 22.3123 9.67358 22.3131C4.63598 30.0282 1.70899 39.244 1.70899 49.1454C1.70899 65.104 9.31469 79.2847 21.0993 88.2629C29.3579 94.5547 39.6696 98.2902 50.8529 98.2902C56.2594 98.2902 61.4631 97.4171 66.3283 95.8047L66.3291 95.8038C66.3515 95.7967 66.3746 95.7889 66.397 95.7814C66.3986 95.7814 66.4002 95.7807 66.4018 95.7798C66.4225 95.7727 66.4417 95.7664 66.4624 95.7599C66.4672 95.7583 66.4704 95.7568 66.4752 95.7552C66.4936 95.7496 66.5119 95.7434 66.5303 95.7368C66.5367 95.7352 66.5415 95.7336 66.5471 95.7311C66.563 95.7256 66.5782 95.7208 66.595 95.7153C66.6037 95.7121 66.6117 95.7097 66.6205 95.7066C66.6341 95.7015 66.6476 95.6969 66.6612 95.6928C66.6716 95.6891 66.682 95.6856 66.6923 95.6816C66.7035 95.6785 66.7155 95.6744 66.7267 95.6706C66.7394 95.6657 66.7522 95.6616 66.7658 95.657C66.7746 95.6538 66.7825 95.6513 66.7913 95.6482C66.8065 95.6436 66.8225 95.6379 66.8368 95.6323C66.844 95.6304 66.8512 95.6273 66.8576 95.6258C66.8759 95.6195 66.8927 95.613 66.911 95.6073C66.9134 95.6058 66.9166 95.6052 66.919 95.6042C66.9398 95.5971 66.9613 95.5899 66.9821 95.5827C66.9837 95.5818 66.9853 95.5811 66.9869 95.5811C68.1571 95.174 69.3098 94.7237 70.4377 94.2329C70.4337 94.2354 70.4289 94.2369 70.4249 94.2391C75.9327 91.8453 80.9162 88.4721 85.1556 84.3393L85.1572 84.3418C85.0431 84.4549 84.9281 84.5679 84.8124 84.6811C75.9575 93.3133 63.8546 98.6329 50.5104 98.6329Z" fill="#939699"/>
<path d="M50.8512 98.2897C56.2585 98.2897 61.4606 97.4165 66.3266 95.8042C61.4614 97.4165 56.2577 98.2897 50.8512 98.2897ZM66.4735 95.7546C66.4911 95.749 66.511 95.7428 66.5286 95.7362C66.5102 95.7428 66.4919 95.749 66.4735 95.7546ZM66.5454 95.7306C66.5605 95.7259 66.5781 95.7194 66.5933 95.7147C66.5765 95.7203 66.5613 95.725 66.5454 95.7306ZM66.6906 95.681C66.7026 95.6772 66.713 95.6738 66.725 95.6701C66.7138 95.6738 66.7018 95.6779 66.6906 95.681ZM66.8351 95.6317C66.8415 95.6298 66.8503 95.6267 66.8559 95.6252C66.8495 95.6267 66.8423 95.6298 66.8351 95.6317ZM66.9804 95.5822C66.9836 95.5806 66.982 95.5812 66.9852 95.5806C66.9836 95.5806 66.982 95.5812 66.9804 95.5822ZM9.67188 22.3126C9.67251 22.3118 9.67283 22.3118 9.67315 22.311L9.67188 22.3126ZM9.74859 22.1952C9.75202 22.1904 9.75449 22.1864 9.75792 22.1816C9.75545 22.1856 9.75106 22.192 9.74859 22.1952ZM9.82561 22.0787C9.83152 22.0699 9.83679 22.0619 9.84278 22.0523C9.83679 22.0619 9.83184 22.0699 9.82561 22.0787ZM9.86521 22.0188C9.87143 22.0092 9.87829 21.9988 9.88452 21.9893C9.87861 21.9988 9.87112 22.01 9.86521 22.0188ZM9.98279 21.8424C9.993 21.8272 10.0027 21.8129 10.0127 21.7977C10.0024 21.8129 9.993 21.8272 9.98279 21.8424ZM10.0613 21.725C11.719 19.264 13.5945 16.9603 15.658 14.8426C15.7706 14.7276 15.8834 14.6127 15.9973 14.4985C13.799 16.7096 11.8093 19.1299 10.0613 21.725Z" fill="#939599"/>
<mask id="mask0_801_4685" style="mask-type:luminance" maskUnits="userSpaceOnUse" x="1" y="0" width="99" height="99">
<path d="M50.8548 98.2906C39.6715 98.2906 29.3599 94.5551 21.1013 88.2633C9.31664 79.2852 1.71094 65.1044 1.71094 49.1458C1.71094 39.2444 4.63792 30.0286 9.67553 22.3135L9.67681 22.3119C9.68958 22.292 9.70171 22.2736 9.71448 22.2544C9.71608 22.2513 9.71671 22.2505 9.71855 22.2481C9.72949 22.2313 9.74131 22.2129 9.75224 22.1962C9.75471 22.193 9.7591 22.1866 9.76158 22.1826C9.77155 22.1666 9.78057 22.1531 9.79087 22.1379C9.79494 22.1315 9.79965 22.1243 9.80365 22.118C9.81211 22.1052 9.82081 22.0924 9.82927 22.0796C9.83549 22.0709 9.84045 22.0629 9.84643 22.0533C9.85418 22.0421 9.86104 22.0317 9.86886 22.0198C9.87477 22.011 9.88227 21.9998 9.88818 21.9902C9.89504 21.9807 9.90095 21.9719 9.90782 21.9615C9.91532 21.9495 9.92402 21.9368 9.93184 21.9256C9.93679 21.9176 9.94118 21.9112 9.94653 21.9032C9.95587 21.8889 9.96457 21.8761 9.97391 21.8617C9.97734 21.8569 9.98301 21.8481 9.98644 21.8434C9.99666 21.8282 10.0061 21.8138 10.0164 21.7987C10.0197 21.7931 10.0226 21.7899 10.026 21.7843C10.0372 21.7675 10.0485 21.7508 10.0596 21.734C10.0616 21.7316 10.0634 21.7284 10.065 21.726C11.813 19.1309 13.8027 16.7106 16.0013 14.4995C17.3324 13.16 18.739 11.8988 20.2164 10.719C23.6684 9.08574 26.8985 7.06219 29.8524 4.70496C35.84 2.10667 42.4478 0.665825 49.3917 0.665825C76.5334 0.665825 98.5353 22.6695 98.5353 49.8116C98.5353 69.4221 87.051 86.3481 70.4396 94.2333C69.3117 94.7241 68.1591 95.1744 66.9889 95.5816C66.9857 95.5822 66.9873 95.5816 66.9841 95.5832C66.9633 95.5903 66.9417 95.5975 66.921 95.6046C66.9186 95.6056 66.9154 95.6062 66.913 95.6077C66.8947 95.6134 66.8779 95.62 66.8595 95.6262C66.854 95.6277 66.8452 95.6308 66.8388 95.6327C66.8244 95.6383 66.8084 95.644 66.7933 95.6486C66.7845 95.6517 66.7765 95.6542 66.7677 95.6574C66.7542 95.662 66.7414 95.6661 66.7286 95.671C66.7167 95.6748 66.7063 95.6782 66.6943 95.682C66.6839 95.686 66.6735 95.6895 66.6632 95.6932C66.6496 95.6973 66.636 95.7019 66.6225 95.707C66.6137 95.7101 66.6057 95.7125 66.5969 95.7157C66.5817 95.7204 66.5642 95.7269 66.549 95.7315C66.5434 95.734 66.5386 95.7356 66.5323 95.7372C66.5147 95.7438 66.4947 95.75 66.4772 95.7556C66.4724 95.7572 66.4692 95.7587 66.4644 95.7603C66.4436 95.7668 66.4245 95.7731 66.4037 95.7802C66.4021 95.7811 66.4006 95.7818 66.399 95.7818C66.3766 95.7893 66.3535 95.7971 66.3311 95.8042L66.3303 95.8051C61.4642 97.4175 56.2621 98.2906 50.8548 98.2906ZM99.2034 58C99.2042 57.9992 99.2042 57.996 99.205 57.9944C99.2042 57.996 99.2042 57.9984 99.2034 58ZM99.2297 57.8539C99.2313 57.8475 99.2321 57.8404 99.2337 57.834C99.2321 57.8412 99.2313 57.846 99.2297 57.8539ZM99.2425 57.7845C99.2441 57.7773 99.2449 57.7701 99.2465 57.7629C99.2449 57.7693 99.2433 57.7781 99.2425 57.7845ZM99.2688 57.6328C99.2712 57.6225 99.2728 57.6121 99.2744 57.6017C99.2728 57.6129 99.2712 57.6217 99.2688 57.6328ZM99.2808 57.5658C99.2824 57.5538 99.2848 57.5442 99.2864 57.533C99.2848 57.5434 99.2824 57.5546 99.2808 57.5658ZM99.2936 57.4899C99.2968 57.4724 99.3 57.4524 99.3032 57.4349C99.3 57.4532 99.2968 57.4716 99.2936 57.4899ZM99.3175 57.351C99.7654 54.6833 99.9992 51.9421 99.9992 49.1466C99.9992 35.8774 94.7388 23.8342 86.1913 14.992C94.7388 23.8342 99.9992 35.8766 99.9992 49.1458C99.9992 51.9421 99.7661 54.6825 99.3175 57.351ZM29.8548 4.70257C29.8572 4.70097 29.8572 4.70097 29.8596 4.69937C32.7715 3.32159 35.8416 2.22082 39.0345 1.43215C35.84 2.22162 32.7691 3.3224 29.8548 4.70257ZM39.076 1.42176C39.0832 1.42017 39.092 1.41779 39.1 1.41618C39.092 1.41779 39.084 1.42017 39.076 1.42176Z" fill="white"/>
</mask>
<g mask="url(#mask0_801_4685)">
<path d="M50.8548 98.2906C39.6715 98.2906 29.3599 94.5551 21.1013 88.2633C9.31664 79.2852 1.71094 65.1044 1.71094 49.1458C1.71094 39.2444 4.63792 30.0286 9.67553 22.3135L9.67681 22.3119C9.68958 22.292 9.70171 22.2736 9.71448 22.2544C9.71608 22.2513 9.71671 22.2505 9.71855 22.2481C9.72949 22.2313 9.74131 22.2129 9.75224 22.1962C9.75472 22.193 9.7591 22.1866 9.76158 22.1826C9.77155 22.1666 9.78057 22.1531 9.79087 22.1379C9.79494 22.1315 9.79965 22.1243 9.80365 22.118C9.81211 22.1052 9.82081 22.0924 9.82927 22.0796C9.83549 22.0709 9.84045 22.0629 9.84643 22.0533C9.85418 22.0421 9.86104 22.0317 9.86886 22.0198C9.87477 22.011 9.88227 21.9998 9.88818 21.9902C9.89504 21.9807 9.90095 21.9719 9.90782 21.9615C9.91532 21.9495 9.92402 21.9368 9.93184 21.9256C9.93679 21.9176 9.94118 21.9112 9.94653 21.9032C9.95587 21.8889 9.96457 21.8761 9.97391 21.8617C9.97734 21.8569 9.98301 21.8481 9.98644 21.8434C9.99666 21.8282 10.0061 21.8138 10.0164 21.7987C10.0197 21.7931 10.0226 21.7899 10.026 21.7843C10.0372 21.7675 10.0485 21.7508 10.0596 21.734C10.0616 21.7316 10.0634 21.7284 10.065 21.726C11.813 19.1309 13.8027 16.7106 16.0013 14.4995C17.3324 13.16 18.739 11.8988 20.2164 10.719C23.6684 9.08574 26.8985 7.06219 29.8524 4.70497C35.84 2.10667 42.4478 0.665825 49.3917 0.665825C76.5334 0.665825 98.5353 22.6695 98.5353 49.8116C98.5353 69.4222 87.051 86.3481 70.4396 94.2333C69.3117 94.7241 68.1591 95.1744 66.9889 95.5816C66.9857 95.5822 66.9873 95.5816 66.9841 95.5832C66.9633 95.5903 66.9417 95.5975 66.921 95.6046C66.9186 95.6056 66.9154 95.6062 66.913 95.6077C66.8947 95.6134 66.8779 95.62 66.8595 95.6262C66.854 95.6277 66.8452 95.6308 66.8388 95.6327C66.8244 95.6383 66.8084 95.644 66.7933 95.6486C66.7845 95.6517 66.7765 95.6542 66.7677 95.6574C66.7542 95.662 66.7414 95.6661 66.7286 95.671C66.7167 95.6748 66.7063 95.6782 66.6943 95.682C66.6839 95.686 66.6735 95.6895 66.6632 95.6932C66.6496 95.6973 66.636 95.7019 66.6225 95.707C66.6137 95.7101 66.6057 95.7125 66.5969 95.7157C66.5817 95.7204 66.5642 95.7269 66.549 95.7315C66.5434 95.734 66.5386 95.7356 66.5323 95.7372C66.5147 95.7438 66.4947 95.75 66.4772 95.7556C66.4724 95.7572 66.4692 95.7587 66.4644 95.7603C66.4437 95.7668 66.4245 95.7731 66.4037 95.7802C66.4021 95.7811 66.4006 95.7818 66.399 95.7818C66.3766 95.7893 66.3535 95.7971 66.3311 95.8042L66.3303 95.8051C61.4642 97.4175 56.2621 98.2906 50.8548 98.2906ZM99.2034 58C99.2042 57.9992 99.2042 57.996 99.205 57.9944C99.2042 57.996 99.2042 57.9984 99.2034 58ZM99.2297 57.8539C99.2313 57.8475 99.2321 57.8404 99.2337 57.834C99.2321 57.8412 99.2313 57.846 99.2297 57.8539ZM99.2425 57.7845C99.2441 57.7773 99.2449 57.7701 99.2465 57.7629C99.2449 57.7693 99.2433 57.7781 99.2425 57.7845ZM99.2688 57.6328C99.2712 57.6224 99.2728 57.6121 99.2744 57.6017C99.2728 57.6129 99.2712 57.6217 99.2688 57.6328ZM99.2808 57.5658C99.2824 57.5538 99.2848 57.5442 99.2864 57.533C99.2848 57.5434 99.2824 57.5546 99.2808 57.5658ZM99.2936 57.4899C99.2968 57.4724 99.3 57.4524 99.3032 57.4349C99.3 57.4532 99.2968 57.4716 99.2936 57.4899ZM99.3175 57.351C99.7654 54.6833 99.9992 51.9421 99.9992 49.1466C99.9992 35.8774 94.7388 23.8342 86.1913 14.992C94.7388 23.8342 99.9992 35.8766 99.9992 49.1458C99.9992 51.9421 99.7662 54.6825 99.3175 57.351ZM29.8548 4.70257C29.8572 4.70097 29.8572 4.70097 29.8596 4.69938C32.7715 3.3216 35.8416 2.22082 39.0345 1.43214C35.84 2.22161 32.7691 3.3224 29.8548 4.70257ZM39.076 1.42176C39.0832 1.42017 39.092 1.41778 39.1 1.41618C39.092 1.41778 39.084 1.42017 39.076 1.42176Z" fill="url(#paint0_linear_801_4685)"/>
</g>
<path d="M100.001 49.1459C100.001 69.332 87.8314 86.6757 70.4282 94.2388C87.0459 86.3561 98.5366 69.4262 98.5366 49.8108C98.5366 22.6688 76.5347 0.665054 49.393 0.665054C42.4395 0.665054 35.8237 2.10988 29.8281 4.71536C36.2037 1.6908 43.3319 0.000106812 50.8569 0.000106812C77.9979 0.000106812 100.001 22.0038 100.001 49.1459Z" fill="white"/>
<path d="M58.1051 40.0584C56.401 38.6005 54.3527 37.7878 52.2546 37.5459C51.9958 36.071 51.589 34.5995 50.9996 34.5995C50.4101 34.5995 50.005 36.071 49.7454 37.5459C47.6472 37.7878 45.599 38.6005 43.8915 40.0584C42.6162 38.4931 41.34 36.9268 40.0605 35.3615C46.3609 29.9811 55.6399 29.9811 61.9395 35.3615C60.6599 36.9268 59.3838 38.4931 58.1051 40.0584ZM51.0359 27.0001C36.0866 27.0001 30.8179 32.6248 31.0048 35.5213L32.9237 65.6534C33.1072 68.5491 35.6341 70.9196 38.5374 70.9196H63.4634C66.3667 70.9196 68.8894 68.5491 69.0763 65.6534L70.9952 35.5213C71.1821 32.6248 65.9819 27.0001 51.0359 27.0001Z" fill="#202020"/>
<defs>
<linearGradient id="paint0_linear_801_4685" x1="-6.00243" y1="121.333" x2="85.6065" y2="14.3966" gradientUnits="userSpaceOnUse">
<stop stop-color="white"/>
<stop offset="1" stop-color="#EFEFEF"/>
</linearGradient>
</defs>
</svg>

<svg width="100" height="100" fill="none" xmlns="http://www.w3.org/2000/svg"><path d="M49.143 100C22.002 100 0 77.996 0 50.855c0-13.344 5.319-25.447 13.95-34.302l.34-.345.002.003C5.661 25.066.342 37.168.342 50.513c0 27.142 22.002 49.145 49.143 49.145 13.344 0 25.447-5.32 34.302-13.951l.002.002-.344.34C74.59 94.68 62.488 100 49.143 100z" fill="#969A9D"/><path d="M49.487 99.658C22.346 99.658.344 77.655.344 50.513c0-13.345 5.319-25.447 13.95-34.302l.34-.345.002.003C6.005 24.724.686 36.827.686 50.17c0 27.142 22.002 49.146 49.144 49.146 13.344 0 25.446-5.32 34.3-13.953l.004.003-.345.34c-8.855 8.632-20.958 13.951-34.302 13.951z" fill="#96999C"/><path d="M49.831 99.317C22.69 99.317.687 77.313.687 50.17c0-13.344 5.32-25.447 13.951-34.303l.34-.344.002.003C6.349 24.382 1.03 36.485 1.03 49.829c0 27.141 22.002 49.145 49.143 49.145 13.344 0 25.446-5.319 34.302-13.952l.002.003c-.114.114-.229.226-.345.339-8.855 8.633-20.957 13.953-34.3 13.953z" fill="#96989A"/><path d="M50.171 98.974c-27.141 0-49.144-22.004-49.144-49.145 0-13.344 5.32-25.447 13.951-34.302l.34-.345.002.003C6.689 24.04 1.37 36.142 1.37 49.487c0 27.142 22.002 49.146 49.143 49.146 13.344 0 25.447-5.32 34.302-13.952l.002.002-.344.34c-8.856 8.632-20.958 13.951-34.302 13.951z" fill="#95979A"/><path d="M50.51 98.633c-27.14 0-49.143-22.004-49.143-49.146 0-13.344 5.32-25.447 13.95-34.301.113-.116.226-.231.34-.345l.003.002a49.464 49.464 0 00-5.597 6.883l-.005.008-.034.05c-.003.006-.006.009-.01.014l-.03.045-.012.018-.027.042-.015.022a.803.803 0 00-.044.065l-.02.03a1.677 1.677 0 01-.039.06l-.025.038-.013.02-.03.044-.009.014-.033.052-.004.006a3.58 3.58 0 00-.038.057l-.001.002c-5.038 7.715-7.965 16.931-7.965 26.832 0 15.959 7.606 30.14 19.39 39.118A48.928 48.928 0 0050.853 98.29c5.406 0 10.61-.873 15.475-2.485l.001-.001.068-.023a2.379 2.379 0 01.065-.022c.005 0 .008-.002.013-.004a1.186 1.186 0 00.072-.024l.048-.016.026-.008a.65.65 0 01.04-.014l.031-.011.035-.011.039-.014.025-.009a.624.624 0 00.046-.016l.02-.006.054-.019.008-.003.063-.021a49.027 49.027 0 003.456-1.35l-.013.006a49.22 49.22 0 0014.73-9.9l.002.003-.345.34c-8.855 8.631-20.957 13.95-34.302 13.95z" fill="#939699"/><path d="M50.851 98.29zm15.623-2.535l.055-.019a1.186 1.186 0 01-.055.019zm.071-.024l.048-.016-.048.016zm.146-.05l.034-.01-.034.01zm.144-.05a.095.095 0 00.02-.006l-.02.007zm.145-.049l.005-.001a.01.01 0 00-.005.001zM9.672 22.312l.001-.001-.001.002zm.077-.117c.003-.005.005-.009.009-.013a.2.2 0 01-.01.013zm.077-.116a.895.895 0 00.017-.027l-.017.027zm.04-.06c.005-.01.012-.02.019-.03a1.08 1.08 0 01-.02.03zm.117-.177l.03-.044-.03.044zm.078-.117z" fill="#939599"/><mask id="mask0_801_4685" style="mask-type:luminance" maskUnits="userSpaceOnUse" x="1" y="0" width="99" height="99"><path d="M50.855 98.29A48.927 48.927 0 0121.1 88.264C9.317 79.285 1.711 65.104 1.711 49.146c0-9.902 2.927-19.117 7.965-26.832v-.002l.038-.058.005-.006.033-.052a1.333 1.333 0 01.039-.058l.013-.02.025-.038.017-.027a1.635 1.635 0 00.062-.091.875.875 0 01.024-.036l.015-.023.027-.041.012-.019.03-.044.01-.015.034-.05.005-.008a49.363 49.363 0 0110.151-11.007 49.153 49.153 0 009.636-6.014 48.966 48.966 0 0119.54-4.04c27.141 0 49.143 22.005 49.143 49.147 0 19.61-11.484 36.536-28.095 44.421-1.128.491-2.28.941-3.451 1.349l-.005.001-.063.022a.013.013 0 00-.008.003c-.018.005-.035.012-.053.018l-.021.007a.66.66 0 01-.046.016l-.025.008-.04.014-.034.011-.03.011a.629.629 0 00-.041.014l-.026.009-.048.016a.096.096 0 01-.017.005c-.017.007-.037.013-.055.019l-.013.004a2.386 2.386 0 00-.065.022l-.068.022v.001a49.113 49.113 0 01-15.476 2.486zM99.203 58l.002-.006c0 .002 0 .004-.002.006zm.027-.146l.004-.02-.004.02zm.013-.07l.004-.021a.205.205 0 00-.004.022zm.026-.151zm.012-.067l.005-.033-.005.033zm.013-.076l.01-.055-.01.055zm.023-.139c.448-2.668.682-5.409.682-8.204 0-13.27-5.26-25.313-13.808-34.155C94.74 23.834 100 35.877 100 49.146c0 2.796-.233 5.536-.681 8.205zM29.855 4.703l.005-.004a48.82 48.82 0 01-.005.004zm9.221-3.281l.024-.006-.024.006z" fill="#fff"/></mask><g mask="url(#mask0_801_4685)"><path d="M50.855 98.29A48.927 48.927 0 0121.1 88.264C9.317 79.285 1.711 65.104 1.711 49.146c0-9.902 2.927-19.117 7.965-26.832v-.002l.038-.058.005-.006.033-.052a1.333 1.333 0 01.039-.058l.013-.02.025-.038.017-.027a1.635 1.635 0 00.062-.091.875.875 0 01.024-.036l.015-.023.027-.041.012-.019.03-.044.01-.015.034-.05.005-.008a49.363 49.363 0 0110.151-11.007 49.154 49.154 0 009.636-6.014 48.966 48.966 0 0119.54-4.04c27.141 0 49.143 22.005 49.143 49.147 0 19.61-11.484 36.536-28.095 44.421-1.128.491-2.28.941-3.451 1.349l-.005.001-.063.022a.013.013 0 00-.008.003c-.018.005-.035.012-.053.018l-.021.007a.66.66 0 01-.046.016l-.025.008-.04.014-.034.011-.03.011a.629.629 0 00-.041.014l-.026.009-.048.016a.096.096 0 01-.017.005c-.017.007-.037.013-.055.019l-.013.004a2.524 2.524 0 00-.065.022l-.068.022v.001a49.113 49.113 0 01-15.476 2.486zM99.203 58l.002-.006c0 .002 0 .004-.002.006zm.027-.146l.004-.02-.004.02zm.013-.07l.004-.021a.205.205 0 00-.004.022zm.026-.151zm.012-.067l.005-.033-.005.033zm.013-.076l.01-.055-.01.055zm.023-.139c.448-2.668.682-5.409.682-8.204 0-13.27-5.26-25.313-13.808-34.155C94.74 23.834 100 35.877 100 49.146c0 2.796-.233 5.536-.681 8.205zM29.855 4.703l.005-.004a48.821 48.821 0 01-.005.004zm9.221-3.281l.024-.006-.024.006z" fill="url(#paint0_linear_801_4685)"/></g><path d="M100.001 49.146c0 20.186-12.17 37.53-29.573 45.093 16.618-7.883 28.109-24.813 28.109-44.428C98.537 22.669 76.535.665 49.393.665a48.968 48.968 0 00-19.565 4.05A48.926 48.926 0 0150.857 0C77.997 0 100 22.004 100 49.146z" fill="#fff"/><path d="M58.105 40.058c-1.704-1.458-3.752-2.27-5.85-2.512-.26-1.475-.666-2.947-1.255-2.947-.59 0-.995 1.472-1.255 2.947-2.098.242-4.146 1.054-5.853 2.512a3762.542 3762.542 0 00-3.832-4.697c6.3-5.38 15.58-5.38 21.88 0-1.28 1.566-2.556 3.132-3.835 4.697zM51.035 27c-14.948 0-20.217 5.625-20.03 8.521l1.919 30.132c.183 2.896 2.71 5.267 5.613 5.267h24.926c2.904 0 5.426-2.37 5.613-5.267l1.92-30.132c.186-2.896-5.014-8.52-19.96-8.52z" fill="#202020"/><defs><linearGradient id="paint0_linear_801_4685" x1="-6.002" y1="121.333" x2="85.606" y2="14.397" gradientUnits="userSpaceOnUse"><stop stop-color="#fff"/><stop offset="1" stop-color="#EFEFEF"/></linearGradient></defs></svg>
